src/media/icons/methodology/Streching.svg

<?xml version="1.0" encoding="UTF-8"?>
<svg width="54px" height="81px" viewBox="0 0 54 81" version="1.1" xmlns="http://www.w3.org/2000/svg" xmlns:xlink="http://www.w3.org/1999/xlink">
    <title>yoga</title>
    <g id="✨Symbols" stroke="none" stroke-width="1" fill="none" fill-rule="evenodd">
        <g id="01-Base-/-Ic-/-Streching" transform="translate(-13.000000, 0.000000)" fill-rule="nonzero">
            <g id="yoga" transform="translate(13.000000, 0.000000)">
                <path d="M42.7251562,67.7425 C41.815625,73.30875 40.6148437,77.1123438 40.489375,77.505 C39.8809375,79.3946875 37.854375,80.43625 35.9629687,79.8245313 C35.8953125,79.8035938 35.829375,79.7795313 35.765,79.75375 C35.5284375,79.6635938 35.3078125,79.5509375 35.1034375,79.4157813 C33.7754687,78.5546875 33.1348438,76.8821875 33.6403125,75.3046875 C33.6564063,75.2564063 33.9864062,74.2053125 34.4178125,72.4314063 C35.5348438,67.8454688 37.3425,58.4209375 36.1851562,49.0140625 C35.6975,45.06875 34.6898437,41.1251563 32.8917188,37.5420313 C32.064375,35.8889063 32.6245313,33.9026563 34.1392187,32.9175 C34.251875,32.8434375 34.3709375,32.7757813 34.4932813,32.713125 C34.5946875,32.6615625 34.7009375,32.6132813 34.805625,32.5746875 C34.8104688,32.573125 34.8153125,32.5714063 34.8201563,32.5698438 C36.5264063,31.913125 38.48375,32.6454688 39.3207813,34.3146875 C39.9871875,35.6442188 40.565,37.004375 41.0607813,38.38875 C42.2132813,41.5935938 42.9328125,44.9095313 43.336875,48.193125 C44.2173437,55.3545313 43.60875,62.369375 42.7251562,67.7425 Z" id="Path" fill="#FECBAA"></path>
                <path d="M36.6792188,78.0459375 C36.4748438,78.6801562 36.1625,79.2564062 35.765,79.75375 C35.5284375,79.6635937 35.3078125,79.5509375 35.1034375,79.4157812 C33.7754688,78.5546875 33.1348438,76.8821875 33.6403125,75.3046875 C33.6564063,75.2564062 33.9864063,74.2053125 34.4178125,72.4314063 C35.5348438,67.8454687 37.3425,58.4209375 36.1851563,49.0140625 C35.6975,45.06875 34.6898438,41.1251563 32.8917188,37.5420313 C32.064375,35.8889062 32.6245313,33.9026562 34.1392188,32.9175 C34.251875,32.8434375 34.3709375,32.7757813 34.4932813,32.713125 C34.5946875,32.6615625 34.7009375,32.6132812 34.805625,32.5746875 C35.0357813,32.864375 35.2370313,33.1798438 35.4076563,33.5195312 C37.5275,37.7417188 38.9360938,42.6060938 39.5976563,47.9775 C41.4454687,62.9907812 36.875625,77.4375 36.6792188,78.0459375 Z" id="Path" fill="#FFAE85"></path>
                <path d="M42.2309375,16.1834375 L42.2309375,35.7070312 L27.4495312,35.7070312 L27.4495312,16.1834375 C27.4495312,15.4140625 26.8314063,14.7829688 26.0651563,14.7814063 C23.9517188,14.7717188 22.2309375,16.4859375 22.2309375,18.5979687 L22.2309375,22.3839063 L9.8028125,22.3839063 C8.50375,22.3839063 7.44953125,21.3295313 7.44953125,20.030625 L7.44953125,18.5979687 C7.44953125,8.34453125 15.7939063,0 26.0473438,0 C29.4485938,0 32.6098437,1.0559375 35.2175,2.85875 C39.4509375,5.77875 42.2309375,10.6607813 42.2309375,16.1834375 Z" id="Path" fill="#FD6096"></path>
                <g id="Group" transform="translate(7.343750, 0.000000)" fill="#FC3E81">
                    <path d="M34.8871875,28.4007812 L34.8871875,35.7064063 L20.1060938,35.7064063 L20.1060938,31.5348437 C20.3353125,31.3698437 20.5810938,31.2214062 20.8401563,31.0910937 C20.9671875,31.0284375 21.1435938,30.9442187 21.3415625,30.87 C21.9584375,30.6340625 22.6067187,30.5153125 23.2648438,30.5153125 C24.7510938,30.5153125 26.1267188,31.1125 27.12625,32.1334375 C29.0446875,29.9595313 31.8026562,28.5426563 34.8871875,28.4007812 Z" id="Path"></path>
                    <path d="M27.8740625,2.858125 C23.7432812,3.9378125 14.8864063,7.5440625 14.8864063,18.598125 C14.8864063,20.1765625 14.5570313,21.4210937 13.9689062,22.383125 L2.45859375,22.383125 C1.159375,22.383125 0.10625,21.3298438 0.10625,20.0307813 L0.10625,18.598125 C0.10625,8.3440625 8.45015625,0 18.704375,0 C22.1059375,0 25.2653125,1.05625 27.8740625,2.858125 Z" id="Path"></path>
                </g>
                <path d="M51.9645312,39.4210937 C51.9645312,39.5003125 51.9645312,39.5810937 51.96125,39.6585938 C51.96125,39.7129688 51.9579687,39.7675 51.95625,39.8185937 C51.7484375,44.7275 47.7054688,48.64 42.7454687,48.64 C40.8815625,48.64 39.1495312,48.0875 37.6996875,47.140625 C35.288125,45.5604687 33.6634375,42.8832812 33.5346875,39.8185937 C33.5314062,39.7675 33.5296875,39.7129688 33.5296875,39.6585938 C33.5246875,39.5810937 33.5246875,39.5003125 33.5246875,39.4210937 C33.5246875,38.0223437 33.8364062,36.6960937 34.3939063,35.5085937 C35.8653125,32.3729687 39.0520312,30.2021875 42.7453125,30.2021875 C47.8375,30.2021875 51.9645312,34.3273437 51.9645312,39.4210937 Z" id="Path" fill="#FEDFC5"></path>
                <path d="M33.529375,39.6584375 C33.6753125,39.6420312 33.8234375,39.6348437 33.9717188,39.6348437 L51.5182813,39.6348437 C51.6665625,39.6348437 51.8146875,39.641875 51.960625,39.6584375 C51.960625,39.7125 51.9582813,39.7667187 51.9559375,39.8184375 C51.7489063,44.7279688 47.7051563,48.64 42.74625,48.64 C37.785,48.64 33.74125,44.7279688 33.5342188,39.8184375 C33.5317187,39.7667187 33.529375,39.7126562 33.529375,39.6584375 Z" id="Path" fill="#FECBAA"></path>
                <path d="M44.0684375,56.165 C44.0684375,58.7629687 42.260625,60.9403125 39.8342188,61.5026563 C39.435,61.595 39.019375,61.6445312 38.5921875,61.6445312 C35.56375,61.6445312 33.1126563,59.1901563 33.1126563,56.165 C33.1126563,54.9592188 33.5035938,53.8442187 34.1667188,52.9385938 C35.1596875,51.5728125 36.77125,50.6870312 38.5923437,50.6870312 C39.0509375,50.6870312 39.4979687,50.743125 39.9234375,50.8503125 C42.1271875,51.40125 43.8046875,53.2882812 44.040625,55.6007813 C44.0585938,55.7871875 44.0684375,55.9753125 44.0684375,56.165 Z" id="Path" fill="#C97F4C"></path>
                <g id="Group" transform="translate(32.968750, 50.625000)" fill="#AA6344">
                    <path d="M6.86546875,10.8776563 C6.46625,10.97 6.050625,11.0195313 5.6234375,11.0195313 C2.595,11.0195313 0.14390625,8.56515625 0.14390625,5.54 C0.14390625,4.33421875 0.53484375,3.21921875 1.19796875,2.31359375 C2.1909375,0.9478125 3.8025,0.06203125 5.62359375,0.06203125 C6.0821875,0.06203125 6.52921875,0.118125 6.9546875,0.2253125 C7.20359375,3.628125 7.17390625,7.189375 6.86546875,10.8776563 Z" id="Path"></path>
                    <path d="M11.07125,4.97578125 L8.32828125,4.97578125 C5.681875,4.97578125 3.20703125,3.99953125 1.198125,2.3128125 C2.19078125,0.9484375 3.8021875,0.0615625 5.62296875,0.0615625 C8.45765625,0.0615625 10.7889062,2.21640625 11.07125,4.97578125 Z" id="Path"></path>
                </g>
                <path d="M53.3632812,44.5079688 C52.3373438,49.39375 48.6226563,53.0126562 44.19375,53.0126562 L41.2971875,53.0126562 C40.87,53.0126562 40.4509375,52.9796875 40.0385937,52.91375 C36.1771875,52.3034375 33.0529687,48.9235938 32.1276562,44.5079688 C31.8801562,43.331875 32.7709375,42.2234375 33.9717187,42.2234375 L51.5173438,42.2234375 C52.72,42.2234375 53.6107812,43.3320312 53.3632812,44.5079688 Z" id="Path" fill="#C97F4C"></path>
                <path d="M40.03875,52.91375 C36.1773437,52.3034375 33.053125,48.9235938 32.1278125,44.5079688 C31.8803125,43.331875 32.7710937,42.2234375 33.971875,42.2234375 L38.6020312,42.2234375 C39.050625,44.0659375 39.39875,45.9875 39.6428125,47.971875 C39.8407812,49.581875 39.9728125,51.2296875 40.03875,52.91375 Z" id="Path" fill="#AA6344"></path>
                <path d="M13.36875,21.418125 L13.36875,73.4796875 C13.36875,76.71625 15.2054687,79.50125 17.5928125,79.6534375 C20.1417187,79.8160937 22.2460938,77.0654687 22.2460938,73.6495312 L22.2453125,21.418125 L13.36875,21.418125 L13.36875,21.418125 Z" id="Path" fill="#364EC6"></path>
                <path d="M8.01328125,21.418125 L8.01328125,73.4796875 C8.01328125,76.71625 9.85,79.50125 12.2373437,79.6534375 C14.78625,79.8160937 16.890625,77.0654687 16.890625,73.6495312 L16.8898437,21.418125 L8.01328125,21.418125 L8.01328125,21.418125 Z" id="Path" fill="#4C60E1"></path>
                <g id="Group" transform="translate(26.875000, 32.187500)" fill="#FEDFC5">
                    <path d="M10.8248437,14.953125 C8.41328125,13.3729687 6.78859375,10.6957812 6.65984375,7.63109375 C6.6565625,7.58 6.65484375,7.52546875 6.65484375,7.47109375 C6.64984375,7.39359375 6.64984375,7.3128125 6.64984375,7.23359375 C6.64984375,5.83484375 6.9615625,4.50859375 7.5190625,3.32109375 C7.95125,4.26796875 8.34046875,5.22796875 8.69015625,6.20109375 C9.7196875,9.06453125 10.4042187,12.01375 10.8248437,14.953125 Z" id="Path"></path>
                    <path d="M10.9653125,16.0067187 C12.76,30.5879687 8.36640625,44.5471875 8.1190625,45.3160938 C7.510625,47.2071875 5.484375,48.2470313 3.59328125,47.6385937 C1.70296875,47.0301562 0.6634375,45.0065625 1.2696875,43.115625 L1.2696875,43.115625 C1.34046875,42.8942188 8.26421875,20.7826563 0.52078125,5.35328125 C-0.37,3.57796875 0.34640625,1.41625 2.12203125,0.525 C3.8975,-0.36625 6.05921875,0.35078125 6.95046875,2.12640625 C9.16328125,6.5353125 10.3865625,11.3048437 10.9653125,16.0067187 Z" id="Path"></path>
                </g>
                <path d="M42.2309375,20.8546875 L42.2309375,23.3110938 C41.3923438,23.1001563 39.6007813,22.8973438 37.3890625,24.075625 C37.20875,24.1721875 37.0140625,24.2171875 36.8225,24.2171875 C36.3910938,24.2171875 35.9742188,23.9854688 35.756875,23.578125 C35.4429688,22.9890625 35.6651563,22.2582813 36.2542188,21.944375 C38.721875,20.629375 40.8707813,20.6278125 42.2309375,20.8546875 Z" id="Path" fill="#FC3E81"></path>
                <g id="Group" transform="translate(43.593750, 36.250000)" fill="#AA6344">
                    <path d="M4.48609375,10.48375 C3.819375,10.48375 3.27890625,9.94328125 3.27890625,9.2765625 L3.27890625,6.48640625 C3.27890625,5.8196875 3.819375,5.27921875 4.48609375,5.27921875 C5.1528125,5.27921875 5.69328128,5.8196875 5.69328128,6.48640625 L5.69328128,9.2765625 C5.6934375,9.94328125 5.1528125,10.48375 4.48609375,10.48375 Z" id="Path"></path>
                    <path d="M1.266875,9.0946875 C0.60015625,9.0946875 0.0596875,8.55421875 0.0596875,7.8875 L0.0596875,6.48640625 C0.0596875,5.8196875 0.60015625,5.27921875 1.266875,5.27921875 C1.93359375,5.27921875 2.4740625,5.8196875 2.4740625,6.48640625 L2.4740625,7.8875 C2.4740625,8.55421875 1.93359375,9.0946875 1.266875,9.0946875 Z" id="Path"></path>
                    <path d="M4.17171875,2.4259375 C3.505,2.4259375 2.95703125,1.88546875 2.95703125,1.21875 C2.95703125,0.55203125 3.49,0.0115625 4.156875,0.0115625 L4.171875,0.0115625 C4.83859375,0.0115625 5.3790625,0.55203125 5.3790625,1.21875 C5.3790625,1.88546875 4.8384375,2.4259375 4.17171875,2.4259375 Z" id="Path"></path>
                </g>
                <path d="M23.480625,73.7028125 L23.480625,77.815 C23.480625,79.0217188 22.5023438,79.9998437 21.2957812,79.9998437 L6.92453125,79.9998437 C6.12234375,79.9998437 5.4721875,79.3495312 5.4721875,78.5475 L5.4721875,78.2359375 C5.4721875,74.9301562 8.15203125,72.2503125 11.4578125,72.2503125 L22.0284375,72.2503125 C22.8304688,72.2504688 23.480625,72.9007813 23.480625,73.7028125 Z" id="Path" fill="#BDDFF4"></path>
                <path d="M18.0410937,73.7028125 L18.0410937,77.815 C18.0410937,79.0217188 17.0628125,79.9998437 15.85625,79.9998437 L1.48484375,79.9998437 C0.68265625,79.9998437 0.0325,79.3495312 0.0325,78.5475 L0.0325,78.2359375 C0.0325,74.9301562 2.71234375,72.2503125 6.018125,72.2503125 L16.58875,72.2503125 C17.3907812,72.2504688 18.0410937,72.9007813 18.0410937,73.7028125 Z" id="Path" fill="#E3F4FF"></path>
            </g>
        </g>
    </g>
</svg>

<?xml version="1.0" encoding="utf-8"?>
<!-- Generator: Adobe Illustrator 23.0.6, SVG Export Plug-In . SVG Version: 6.00 Build 0)  -->
<svg version="1.1" id="Calque_1" xmlns="http://www.w3.org/2000/svg" xmlns:xlink="http://www.w3.org/1999/xlink" x="0px" y="0px"
	 viewBox="0 0 54 81" style="enable-background:new 0 0 54 81;" xml:space="preserve">
<style type="text/css">
	.st0{fill:#FECBAA;}
	.st1{fill:#FFAE85;}
	.st2{fill:#FBDF77;}
	.st3{fill:#F9CA1C;}
	.st4{fill:#FEDFC5;}
	.st5{fill:#BB9815;}
	.st6{fill:#7D650E;}
	.st7{fill:#3E3207;}
	.st8{fill:#FAD549;}
	.st9{fill:#FDEAA4;}
	.st10{fill:#FEF4D2;}
</style>
<title>yoga</title>
<g>
	<g transform="translate(-13.000000, 0.000000)">
		<g id="yoga" transform="translate(13.000000, 0.000000)">
			<path id="Path" class="st0" d="M42.7,67.7c-0.9,5.6-2.1,9.4-2.2,9.8c-0.6,1.9-2.6,2.9-4.5,2.3c-0.1,0-0.1,0-0.2-0.1
				c-0.2-0.1-0.5-0.2-0.7-0.3c-1.3-0.9-2-2.5-1.5-4.1c0,0,0.3-1.1,0.8-2.9c1.1-4.6,2.9-14,1.8-23.4c-0.5-3.9-1.5-7.9-3.3-11.5
				c-0.8-1.7-0.3-3.6,1.2-4.6c0.1-0.1,0.2-0.1,0.4-0.2c0.1-0.1,0.2-0.1,0.3-0.1c0,0,0,0,0,0c1.7-0.7,3.7,0.1,4.5,1.7
				c0.7,1.3,1.2,2.7,1.7,4.1c1.2,3.2,1.9,6.5,2.3,9.8C44.2,55.4,43.6,62.4,42.7,67.7z"/>
			<path class="st1" d="M36.7,78c-0.2,0.6-0.5,1.2-0.9,1.7c-0.2-0.1-0.5-0.2-0.7-0.3c-1.3-0.9-2-2.5-1.5-4.1c0,0,0.3-1.1,0.8-2.9
				c1.1-4.6,2.9-14,1.8-23.4c-0.5-3.9-1.5-7.9-3.3-11.5c-0.8-1.7-0.3-3.6,1.2-4.6c0.1-0.1,0.2-0.1,0.4-0.2c0.1-0.1,0.2-0.1,0.3-0.1
				c0.2,0.3,0.4,0.6,0.6,0.9c2.1,4.2,3.5,9.1,4.2,14.5C41.4,63,36.9,77.4,36.7,78z"/>
			<path class="st2" d="M42.2,16.2v19.5H27.4V16.2c0-0.8-0.6-1.4-1.4-1.4c-2.1,0-3.8,1.7-3.8,3.8v3.8H9.8c-1.3,0-2.4-1.1-2.4-2.4
				v-1.4C7.4,8.3,15.8,0,26,0c3.4,0,6.6,1.1,9.2,2.9C39.5,5.8,42.2,10.7,42.2,16.2z"/>
			<g id="Group" transform="translate(7.343750, 0.000000)">
				<path class="st3" d="M34.9,28.4v7.3H20.1v-4.2c0.2-0.2,0.5-0.3,0.7-0.4c0.1-0.1,0.3-0.1,0.5-0.2c0.6-0.2,1.3-0.4,1.9-0.4
					c1.5,0,2.9,0.6,3.9,1.6C29,30,31.8,28.5,34.9,28.4z"/>
				<path class="st3" d="M27.9,2.9c-4.1,1.1-13,4.7-13,15.7c0,1.6-0.3,2.8-0.9,3.8H2.5c-1.3,0-2.4-1.1-2.4-2.4v-1.4
					C0.1,8.3,8.5,0,18.7,0C22.1,0,25.3,1.1,27.9,2.9z"/>
			</g>
			<path class="st4" d="M52,39.4c0,0.1,0,0.2,0,0.2c0,0.1,0,0.1,0,0.2c-0.2,4.9-4.3,8.8-9.2,8.8c-1.9,0-3.6-0.6-5-1.5
				c-2.4-1.6-4-4.3-4.2-7.3c0-0.1,0-0.1,0-0.2c0-0.1,0-0.2,0-0.2c0-1.4,0.3-2.7,0.9-3.9c1.5-3.1,4.7-5.3,8.4-5.3
				C47.8,30.2,52,34.3,52,39.4z"/>
			<path class="st0" d="M33.5,39.7c0.1,0,0.3,0,0.4,0h17.5c0.1,0,0.3,0,0.4,0c0,0.1,0,0.1,0,0.2c-0.2,4.9-4.3,8.8-9.2,8.8
				c-5,0-9-3.9-9.2-8.8C33.5,39.8,33.5,39.7,33.5,39.7z"/>
			<path class="st5" d="M44.1,56.2c0,2.6-1.8,4.8-4.2,5.3c-0.4,0.1-0.8,0.1-1.2,0.1c-3,0-5.5-2.5-5.5-5.5c0-1.2,0.4-2.3,1.1-3.2
				c1-1.4,2.6-2.3,4.4-2.3c0.5,0,0.9,0.1,1.3,0.2c2.2,0.6,3.9,2.4,4.1,4.8C44.1,55.8,44.1,56,44.1,56.2z"/>
			<g transform="translate(32.968750, 50.625000)">
				<path class="st6" d="M6.9,10.9C6.5,11,6.1,11,5.6,11c-3,0-5.5-2.5-5.5-5.5c0-1.2,0.4-2.3,1.1-3.2c1-1.4,2.6-2.3,4.4-2.3
					c0.5,0,0.9,0.1,1.3,0.2C7.2,3.6,7.2,7.2,6.9,10.9z"/>
				<path class="st6" d="M11.1,5H8.3C5.7,5,3.2,4,1.2,2.3c1-1.4,2.6-2.3,4.4-2.3C8.5,0.1,10.8,2.2,11.1,5z"/>
			</g>
			<path class="st5" d="M53.4,44.5c-1,4.9-4.7,8.5-9.2,8.5h-2.9c-0.4,0-0.8,0-1.3-0.1c-3.9-0.6-7-4-7.9-8.4
				c-0.2-1.2,0.6-2.3,1.8-2.3h17.5C52.7,42.2,53.6,43.3,53.4,44.5z"/>
			<path class="st6" d="M40,52.9c-3.9-0.6-7-4-7.9-8.4c-0.2-1.2,0.6-2.3,1.8-2.3h4.6c0.4,1.8,0.8,3.8,1,5.7
				C39.8,49.6,40,51.2,40,52.9z"/>
			<path class="st7" d="M13.4,21.4v52.1c0,3.2,1.8,6,4.2,6.2c2.5,0.2,4.7-2.6,4.7-6l0-52.2H13.4L13.4,21.4z"/>
			<path class="st6" d="M8,21.4v52.1c0,3.2,1.8,6,4.2,6.2c2.5,0.2,4.7-2.6,4.7-6l0-52.2H8L8,21.4z"/>
			<g transform="translate(26.875000, 32.187500)">
				<path class="st4" d="M10.8,15c-2.4-1.6-4-4.3-4.2-7.3c0-0.1,0-0.1,0-0.2c0-0.1,0-0.2,0-0.2c0-1.4,0.3-2.7,0.9-3.9
					C8,4.3,8.3,5.2,8.7,6.2C9.7,9.1,10.4,12,10.8,15z"/>
				<path class="st4" d="M11,16c1.8,14.6-2.6,28.5-2.8,29.3c-0.6,1.9-2.6,2.9-4.5,2.3C1.7,47,0.7,45,1.3,43.1l0,0
					c0.1-0.2,7-22.3-0.7-37.8c-0.9-1.8-0.2-3.9,1.6-4.8C3.9-0.4,6.1,0.4,7,2.1C9.2,6.5,10.4,11.3,11,16z"/>
			</g>
			<path class="st3" d="M42.2,20.9v2.5c-0.8-0.2-2.6-0.4-4.8,0.8c-0.2,0.1-0.4,0.1-0.6,0.1c-0.4,0-0.8-0.2-1.1-0.6
				c-0.3-0.6-0.1-1.3,0.5-1.6C38.7,20.6,40.9,20.6,42.2,20.9z"/>
			<g transform="translate(43.593750, 36.250000)">
				<path class="st6" d="M4.5,10.5c-0.7,0-1.2-0.5-1.2-1.2V6.5c0-0.7,0.5-1.2,1.2-1.2s1.2,0.5,1.2,1.2v2.8
					C5.7,9.9,5.2,10.5,4.5,10.5z"/>
				<path class="st6" d="M1.3,9.1c-0.7,0-1.2-0.5-1.2-1.2V6.5c0-0.7,0.5-1.2,1.2-1.2s1.2,0.5,1.2,1.2v1.4C2.5,8.6,1.9,9.1,1.3,9.1z"
					/>
				<path class="st6" d="M4.2,2.4C3.5,2.4,3,1.9,3,1.2S3.5,0,4.2,0h0c0.7,0,1.2,0.5,1.2,1.2S4.8,2.4,4.2,2.4z"/>
			</g>
			<path class="st3" d="M23.5,73.7v4.1c0,1.2-1,2.2-2.2,2.2H6.9c-0.8,0-1.5-0.7-1.5-1.5v-0.3c0-3.3,2.7-6,6-6H22
				C22.8,72.3,23.5,72.9,23.5,73.7z"/>
			<path class="st2" d="M18,73.7v4.1c0,1.2-1,2.2-2.2,2.2H1.5C0.7,80,0,79.3,0,78.5v-0.3c0-3.3,2.7-6,6-6h10.6
				C17.4,72.3,18,72.9,18,73.7z"/>
		</g>
	</g>
</g>
<rect x="111.5" y="21.4" class="st3" width="25.7" height="25.7"/>
<rect x="-87.1" y="116.7" class="st7" width="25.7" height="25.7"/>
<rect x="-49.3" y="116.7" class="st6" width="25.7" height="25.7"/>
<rect x="-8.9" y="116.7" class="st5" width="25.7" height="25.7"/>
<rect x="26.2" y="116.7" class="st3" width="25.7" height="25.7"/>
<rect x="61.4" y="116.7" class="st8" width="25.7" height="25.7"/>
<rect x="105" y="116.7" class="st2" width="25.7" height="25.7"/>
<rect x="144.3" y="116.7" class="st9" width="25.7" height="25.7"/>
<rect x="194.4" y="116.7" class="st10" width="25.7" height="25.7"/>
</svg>
